X:187
T: De klenge Man (3-28), S. 72
N: K1161a
O: Luxemburg
S: KINTZELE, Guillaume: An der Ucht, Bd. 3 Luxemburg 1928]
R: Spottlied]
M: 2/4
L: 1/16
K: C
G2 | c2G2G2GG | A2A2G4 |
F2DDD2FF | E2D2C2
G2 | c2G2G2GG | A2A2G2z
c | B2B2A2BB | c4z2

@@@ Tune index: 8241
